svg/fluentui-system-icons/ic_fluent_phone_eraser_16_regular.svg

<svg width="16" height="16" viewBox="0 0 16 16" fill="none" xmlns="http://www.w3.org/2000/svg">
<path d="M10 10.8775V13.2499C10 13.6641 9.66421 13.9999 9.25 13.9999H4.75C4.33579 13.9999 4 13.6641 4 13.2499V2.74988C4 2.33566 4.33579 1.99988 4.75 1.99988H8.87838L9.79262 1.08563C9.62179 1.02997 9.43941 0.999878 9.25 0.999878H4.75C3.7835 0.999878 3 1.78338 3 2.74988V13.2499C3 14.2164 3.7835 14.9999 4.75 14.9999H9.25C10.2165 14.9999 11 14.2164 11 13.2499V10.1209L10.7676 10.3533C10.5397 10.5812 10.2786 10.756 10 10.8775ZM5.5 12.4999C5.5 12.2237 5.72386 11.9999 6 11.9999H8C8.27614 11.9999 8.5 12.2237 8.5 12.4999C8.5 12.776 8.27614 12.9999 8 12.9999H6C5.72386 12.9999 5.5 12.776 5.5 12.4999ZM13.0605 1.3534C12.4747 0.767616 11.525 0.767615 10.9392 1.3534L6.3534 5.93919C5.76762 6.52498 5.76762 7.47472 6.3534 8.06051L7.93919 9.64629C8.52497 10.2321 9.47472 10.2321 10.0605 9.64629L14.6463 5.06051C15.2321 4.47472 15.2321 3.52497 14.6463 2.93919L13.0605 1.3534ZM7.99985 5.70696L10.2927 7.99985L9.3534 8.93919C9.15814 9.13445 8.84156 9.13445 8.6463 8.93919L7.06051 7.3534C6.86525 7.15814 6.86525 6.84156 7.06051 6.6463L7.99985 5.70696Z" fill="#212121"/>
</svg>

<svg xmlns="http://www.w3.org/2000/svg" width="16" height="16"><path d="M10 10.877v2.373a.75.75 0 0 1-.75.75h-4.5a.75.75 0 0 1-.75-.75V2.75A.75.75 0 0 1 4.75 2h4.128l.915-.914A1.749 1.749 0 0 0 9.25 1h-4.5A1.75 1.75 0 0 0 3 2.75v10.5c0 .966.784 1.75 1.75 1.75h4.5A1.75 1.75 0 0 0 11 13.25v-3.13l-.232.233a2.494 2.494 0 0 1-.768.524ZM5.5 12.5A.5.5 0 0 1 6 12h2a.5.5 0 1 1 0 1H6a.5.5 0 0 1-.5-.5Zm7.56-11.147a1.5 1.5 0 0 0-2.12 0L6.352 5.94a1.5 1.5 0 0 0 0 2.122L7.94 9.646a1.5 1.5 0 0 0 2.121 0l4.586-4.585a1.5 1.5 0 0 0 0-2.122L13.06 1.353ZM8 5.707 10.293 8l-.94.94a.5.5 0 0 1-.707 0L7.061 7.352a.5.5 0 0 1 0-.707L8 5.707Z"/></svg>
